FUJI_3513_ D65_Rebuild_Arri-Log-C3.cube
TITLE "FUJI 3513 D65 ARRI-LOG-C3"
# (c) Florian Rubenberger 2024
LUT_3D_SIZE 5
0.0221408000 0.0208438000 0.0220188000
0.2011290000 0.0295109000 0.0000000000
0.4658730000 0.0604410000 0.0000000000
0.6611280000 0.0772717000 0.0000000000
0.8104520000 0.0901961000 0.0000000000
0.0000000000 0.1763180000 0.0292210000
0.2185700000 0.1897610000 0.0104677000
0.5463490000 0.2492870000 0.0191653000
0.7618070000 0.2716560000 0.0043793400
0.9201650000 0.2856180000 0.0000000000
0.0000000000 0.2796980000 0.0000000000
0.0144961000 0.2375830000 0.0000000000
0.4661940000 0.3700920000 0.0000000000
0.7655300000 0.4590370000 0.0088807500
0.9602810000 0.4978100000 0.0178531000
0.0000000000 0.4021210000 0.0000000000
0.0000000000 0.2899980000 0.0000000000
0.2588690000 0.3846800000 0.0000000000
0.6647750000 0.5289230000 0.0000000000
0.9065840000 0.6069280000 0.0000000000
0.0000000000 0.4909440000 0.0000000000
0.0000000000 0.3716790000 0.0000000000
0.1108420000 0.3813990000 0.0000000000
0.5263450000 0.5540250000 0.0000000000
0.8250400000 0.6490730000 0.0000000000
0.0515602000 0.0159457000 0.1526970000
0.2061040000 0.0479133000 0.2017550000
0.4898910000 0.0924086000 0.2012050000
0.6873430000 0.1108870000 0.1791410000
0.8350810000 0.1234760000 0.1614100000
0.0000000000 0.2175170000 0.2687720000
0.2389573600 0.2630064400 0.2709972000
0.5646614000 0.3188574800 0.2714286400
0.8098218400 0.3609796800 0.2700420400
0.9655760000 0.3606780000 0.2363010000
0.0000000000 0.4576030000 0.3263290000
0.1202795360 0.4050402800 0.2213266400
0.4974977200 0.4495106400 0.2299886400
0.8199827200 0.5549315200 0.2882893600
1.0000000000 0.5942020000 0.2891890000
0.0000000000 0.6205230000 0.3384600000
0.0053168552 0.4444715200 0.1159759240
0.2094147640 0.3827707600 0.0240512640
0.6547321600 0.5671467200 0.1583038880
0.9449760000 0.6865640000 0.2355690000
0.0000000000 0.7239180000 0.3351640000
0.0000000000 0.5261310000 0.0906386000
0.0334478000 0.3420160000 0.0000000000
0.4608380000 0.5344170000 0.0094148200
0.8213780000 0.6902570000 0.1396050000
0.0954299000 0.0218509000 0.3073780000
0.2579390000 0.0622721000 0.3911960000
0.5029980000 0.1280080000 0.4710770000
0.7138780000 0.1515070000 0.4583350000
0.8668040000 0.1645530000 0.4400850000
0.0000000000 0.2175020000 0.4593730000
0.2962496400 0.2643101200 0.4824616000
0.5592279600 0.3367488400 0.5431907200
0.8321670800 0.4036665600 0.5694605200
1.0000000000 0.4157320000 0.5507740000
0.0000000000 0.4656900000 0.5730830000
0.0471015640 0.5318928800 0.5996936400
0.5475546400 0.5588946000 0.5620074800
0.8471642400 0.6335233200 0.5896154400
1.0000000000 0.7262990000 0.6460970000
0.0000000000 0.6681470000 0.6292970000
0.0304277164 0.7330446000 0.6402268800
0.3877994400 0.6342388000 0.4630766800
0.7272692800 0.6939956400 0.4992800000
1.0000000000 0.8222930000 0.5937900000
0.0000000000 0.8079800000 0.6610510000
0.0000000000 0.8587930000 0.6518810000
0.1963530000 0.5908140000 0.3055920000
0.4641340000 0.5975430000 0.2836040000
0.8417180000 0.7653770000 0.4319680000
0.1292290000 0.0252384000 0.4298920000
0.2894480000 0.0649577000 0.5253380000
0.5359270000 0.1320970000 0.6235750000
0.7189750000 0.1777220000 0.6734260000
0.8790110000 0.1950560000 0.6650030000
0.0000000000 0.2131070000 0.6001070000
0.3509523600 0.2757908800 0.6583372000
0.6355552400 0.3702979600 0.7517272000
0.8441320800 0.4380572000 0.8115780000
1.0000000000 0.4534520000 0.8014340000
0.0000000000 0.4613260000 0.7245900000
0.0802337872 0.5365102800 0.7807578000
0.6046741600 0.5666675600 0.7609499600
0.8324047200 0.6384587600 0.8200320000
1.0000000000 0.7330430000 0.8802930000
0.0000000000 0.6684820000 0.8226750000
0.0011828800 0.7295294400 0.8431329200
0.3846280800 0.8252361600 0.8807924000
0.7853354800 0.8068031200 0.8060998000
1.0000000000 0.8752570000 0.8394450000
0.0000000000 0.8176550000 0.8673990000
0.0000000000 0.8820330000 0.8870980000
0.3664610000 0.9679260000 0.9012590000
0.6676280000 0.8598310000 0.7321280000
0.9346760000 0.9059280000 0.7613640000
0.1526050000 0.0270542000 0.5161520000
0.3091330000 0.0645304000 0.6147250000
0.5546200000 0.1313040000 0.7237810000
0.7415730000 0.1797820000 0.7832150000
0.8803690000 0.2137180000 0.8189670000
0.0000000000 0.2103150000 0.6959790000
0.3710380000 0.2668040000 0.7680170000
0.6672010000 0.3680630000 0.8751810000
0.8748610000 0.4348670000 0.9379260000
1.0000000000 0.4713970000 0.9677420000
0.0000000000 0.4612500000 0.8360270000
0.0992905000 0.5331810000 0.9041120000
0.6721750000 0.5991610000 0.9260240000
0.9219960000 0.6955370000 1.0000000000
1.0000000000 0.7640960000 1.0000000000
0.0000000000 0.6654760000 0.9332880000
0.0000000000 0.7351340000 0.9770050000
0.4306710000 0.8361790000 1.0000000000
0.8306710000 0.8168920000 0.9602350000
1.0000000000 0.8711380000 1.0000000000
0.0000000000 0.8150450000 1.0000000000
0.0000000000 0.8699170000 1.0000000000
0.2455940000 0.9748530000 1.0000000000
0.6921190000 1.0000000000 1.0000000000
0.9804070000 0.9884950000 0.9855340000
