FUJI_3513_ D65_Rebuild_Arri-Log-C3.cube
TITLE "FUJI 3513 D65 ARRI-LOG-C3"
# (c) Florian Rubenberger 2024
LUT_3D_SIZE 33
0.0221408000 0.0208438000 0.0220188000
0.0579538000 0.0198215000 0.0129702000
0.0802319000 0.0202029000 0.0086213500
0.0969863000 0.0208286000 0.0057831700
0.1122150000 0.0216068000 0.0034638000
0.1281300000 0.0226291000 0.0012970200
0.1476620000 0.0241703000 0.0000000000
0.1726410000 0.0264744000 0.0000000000
0.2011290000 0.0295109000 0.0000000000
0.2324410000 0.0332341000 0.0000000000
0.2653240000 0.0374762000 0.0000000000
0.2990310000 0.0420233000 0.0000000000
0.3331650000 0.0466316000 0.0000000000
0.3668730000 0.0509499000 0.0000000000
0.4006870000 0.0547341000 0.0000000000
0.4340430000 0.0576944000 0.0000000000
0.4658730000 0.0604410000 0.0000000000
0.4951250000 0.0629587000 0.0000000000
0.5222100000 0.0652781000 0.0000000000
0.5482870000 0.0675364000 0.0000000000
0.5743950000 0.0697795000 0.0000000000
0.5997410000 0.0719768000 0.0000000000
0.6232550000 0.0740063000 0.0000000000
0.6437780000 0.0757763000 0.0000000000
0.6611280000 0.0772717000 0.0000000000
0.6764320000 0.0785992000 0.0000000000
0.6923020000 0.0799725000 0.0000000000
0.7098040000 0.0814832000 0.0000000000
0.7285570000 0.0831006000 0.0000000000
0.7481650000 0.0847944000 0.0000000000
0.7684900000 0.0865644000 0.0000000000
0.7893190000 0.0883650000 0.0000000000
0.8104520000 0.0901961000 0.0000000000
0.0180362000 0.0505989000 0.0263066000
0.0643168000 0.0496376000 0.0201724000
0.0893721000 0.0496071000 0.0154269000
0.1075610000 0.0497749000 0.0122530000
0.1238420000 0.0502327000 0.0097047400
0.1406730000 0.0510109000 0.0073853700
0.1608000000 0.0523232000 0.0049744400
0.1863580000 0.0544900000 0.0024567000
0.2157170000 0.0576333000 0.0002136260
0.2478980000 0.0616159000 0.0000000000
0.2816360000 0.0662242000 0.0000000000
0.3161670000 0.0711986000 0.0000000000
0.3511100000 0.0762646000 0.0000000000
0.3856110000 0.0810407000 0.0000000000
0.4202490000 0.0852369000 0.0000000000
0.4541850000 0.0883803000 0.0000000000
0.4862590000 0.0910506000 0.0000000000
0.5157090000 0.0935073000 0.0000000000
0.5429470000 0.0957961000 0.0000000000
0.5691460000 0.0979934000 0.0000000000
0.5953920000 0.1002060000 0.0000000000
0.6208590000 0.1023580000 0.0000000000
0.6444650000 0.1043560000 0.0000000000
0.6650640000 0.1061110000 0.0000000000
0.6824750000 0.1075760000 0.0000000000
0.6978410000 0.1088880000 0.0000000000
0.7137560000 0.1102460000 0.0000000000
0.7313190000 0.1117270000 0.0000000000
0.7501180000 0.1133290000 0.0000000000
0.7698020000 0.1150070000 0.0000000000
0.7901730000 0.1167470000 0.0000000000
0.8110480000 0.1185320000 0.0000000000
0.8322420000 0.1203480000 0.0000000000
0.0142824000 0.0775616000 0.0303502000
0.0608682000 0.0778210000 0.0249943000
0.0918288000 0.0765240000 0.0209354000
0.1117270000 0.0771649000 0.0178073000
0.1293050000 0.0777600000 0.0152285000
0.1472800000 0.0785229000 0.0128328000
0.1685210000 0.0797589000 0.0103761000
0.1952390000 0.0818647000 0.0078584000
0.2254220000 0.0849317000 0.0057373900
0.2584570000 0.0890059000 0.0041046800
0.2931870000 0.0938735000 0.0029602500
0.3286950000 0.0991989000 0.0021515200
0.3645990000 0.1046770000 0.0013885700
0.4000460000 0.1098800000 0.0003662170
0.4356450000 0.1145490000 0.0000000000
0.4704970000 0.1180590000 0.0000000000
0.5029680000 0.1207140000 0.0000000000
0.5327530000 0.1231400000 0.0000000000
0.5602810000 0.1253990000 0.0000000000
0.5867250000 0.1275650000 0.0000000000
0.6131840000 0.1297470000 0.0000000000
0.6388490000 0.1318680000 0.0000000000
0.6626230000 0.1338520000 0.0000000000
0.6833750000 0.1355610000 0.0000000000
0.7008930000 0.1370260000 0.0000000000
0.7163500000 0.1383080000 0.0000000000
0.7323720000 0.1396510000 0.0000000000
0.7500110000 0.1411150000 0.0000000000
0.7689170000 0.1427020000 0.0000000000
0.7886930000 0.1443660000 0.0000000000
0.8091710000 0.1460750000 0.0000000000
0.8301370000 0.1478450000 0.0000000000
0.8514230000 0.1496300000 0.0000000000
0.0101015000 0.1006330000 0.0330816000
0.0553902000 0.1015790000 0.0278325000
0.0869001000 0.1016250000 0.0243839000
0.1105210000 0.1008160000 0.0215305000
0.1302660000 0.1009380000 0.0190738000
0.1492480000 0.1020520000 0.0167086000
0.1716180000 0.1035630000 0.0142824000
0.1995730000 0.1058670000 0.0118257000
0.2309300000 0.1091020000 0.0098268100
0.2650640000 0.1133440000 0.0084229800
0.3006940000 0.1184250000 0.0075989900
0.3371180000 0.1240560000 0.0071717400
0.3739220000 0.1299150000 0.0068818200
0.4103150000 0.1355610000 0.0063477500
0.4469210000 0.1407190000 0.0051422900
0.4828110000 0.1447170000 0.0026855900
0.5158460000 0.1474780000 0.0000000000
0.5460750000 0.1499500000 0.0000000000
0.5739530000 0.1522390000 0.0000000000
0.6007170000 0.1544210000 0.0000000000
0.6274660000 0.1566190000 0.0000000000
0.6533760000 0.1587400000 0.0000000000
0.6773630000 0.1607080000 0.0000000000
0.6982830000 0.1624170000 0.0000000000
0.7159380000 0.1638670000 0.0000000000
0.7315330000 0.1651640000 0.0000000000
0.7476620000 0.1664910000 0.0000000000
0.7654380000 0.1679560000 0.0000000000
0.7844660000 0.1695280000 0.0000000000
0.8043640000 0.1711600000 0.0000000000
0.8249640000 0.1728690000 0.0000000000
0.8460520000 0.1746240000 0.0000000000
0.8674450000 0.1763940000 0.0000000000
0.0057068700 0.1187000000 0.0343786000
0.0500343000 0.1199210000 0.0290990000
0.0810559000 0.1204850000 0.0257725000
0.1052110000 0.1208060000 0.0234989000
0.1267110000 0.1203480000 0.0211185000
0.1485470000 0.1201800000 0.0189822000
0.1716180000 0.1220110000 0.0165408000
0.2005650000 0.1246810000 0.0141604000
0.2329900000 0.1282220000 0.0122835000
0.2681470000 0.1327690000 0.0110933000
0.3047840000 0.1381550000 0.0105592000
0.3421530000 0.1441370000 0.0104982000
0.3799340000 0.1504080000 0.0106203000
0.4172120000 0.1564810000 0.0105592000
0.4546270000 0.1620510000 0.0098420700
0.4912490000 0.1665060000 0.0079194300
0.5249710000 0.1694970000 0.0047760700
0.5556420000 0.1720910000 0.0017395300
0.5839020000 0.1744560000 0.0000000000
0.6110020000 0.1766990000 0.0000000000
0.6380560000 0.1789430000 0.0000000000
0.6642250000 0.1810940000 0.0000000000
0.6884570000 0.1830930000 0.0000000000
0.7095600000 0.1848170000 0.0000000000
0.7273670000 0.1862820000 0.0000000000
0.7430690000 0.1875790000 0.0000000000
0.7593190000 0.1889070000 0.0000000000
0.7772340000 0.1903870000 0.0000000000
0.7963990000 0.1919590000 0.0000000000
0.8164190000 0.1936060000 0.0000000000
0.8371400000 0.1953000000 0.0000000000
0.8583660000 0.1970550000 0.0000000000
0.8798810000 0.1988250000 0.0000000000
0.0016022000 0.1319910000 0.0346990000
0.0451362000 0.1332420000 0.0292363000
0.0758373000 0.1341880000 0.0260624000
0.0997787000 0.1347980000 0.0238346000
0.1219200000 0.1353480000 0.0220798000
0.1442590000 0.1349970000 0.0197604000
0.1703060000 0.1354700000 0.0176394000
0.1998170000 0.1384150000 0.0152438000
0.2330050000 0.1422900000 0.0134737000
0.2690010000 0.1471580000 0.0124514000
0.3064470000 0.1528650000 0.0121614000
0.3446400000 0.1591970000 0.0124056000
0.3832000000 0.1658350000 0.0128939000
0.4212860000 0.1723050000 0.0132296000
0.4595410000 0.1783320000 0.0129702000
0.4969860000 0.1832150000 0.0115053000
0.5310440000 0.1864190000 0.0086671200
0.5621580000 0.1891660000 0.0057984300
0.5907840000 0.1916530000 0.0030670600
0.6181730000 0.1939880000 0.0003967350
0.6455020000 0.1962920000 0.0000000000
0.6719310000 0.1985050000 0.0000000000
0.6963610000 0.2005340000 0.0000000000
0.7176320000 0.2023040000 0.0000000000
0.7355760000 0.2037840000 0.0000000000
0.7514000000 0.2050810000 0.0000000000
0.7677730000 0.2064390000 0.0000000000
0.7857940000 0.2079190000 0.0000000000
0.8050810000 0.2095060000 0.0000000000
0.8252230000 0.2111700000 0.0000000000
0.8460670000 0.2128790000 0.0000000000
0.8673990000 0.2146330000 0.0000000000
0.8890210000 0.2164190000 0.0000000000
0.0000000000 0.1454030000 0.0342870000
0.0391089000 0.1465320000 0.0285039000
0.0694896000 0.1478600000 0.0254978000
0.0930953000 0.1486690000 0.0232547000
0.1151750000 0.1496150000 0.0216220000
0.1383990000 0.1505000000 0.0201267000
0.1651790000 0.1503620000 0.0176852000
0.1976960000 0.1521930000 0.0156863000
0.2315400000 0.1564200000 0.0139467000
0.2683910000 0.1617000000 0.0131075000
0.3067370000 0.1678340000 0.0130922000
0.3458300000 0.1745940000 0.0137026000
0.3853060000 0.1817040000 0.0146029000
0.4243080000 0.1886780000 0.0154116000
0.4635230000 0.1952390000 0.0156710000
0.5019760000 0.2007170000 0.0147707000
0.5367820000 0.2043180000 0.0123751000
0.5682000000 0.2072180000 0.0097352600
0.5972530000 0.2098730000 0.0072022600
0.6250400000 0.2123600000 0.0046692600
0.6527050000 0.2147710000 0.0020752300
0.6794380000 0.2170750000 0.0000000000
0.7041280000 0.2191810000 0.0000000000
0.7256120000 0.2209960000 0.0000000000
0.7437250000 0.2225220000 0.0000000000
0.7596860000 0.2238500000 0.0000000000
0.7761810000 0.2252380000 0.0000000000
0.7943540000 0.2267490000 0.0000000000
0.8137940000 0.2283670000 0.0000000000
0.8340890000 0.2300450000 0.0000000000
0.8550700000 0.2317690000 0.0000000000
0.8765540000 0.2335550000 0.0000000000
0.8982990000 0.2353400000 0.0000000000
0.0000000000 0.1610130000 0.0325933000
0.0302434000 0.1617760000 0.0262455000
0.0601511000 0.1634700000 0.0233310000
0.0834058000 0.1645990000 0.0211795000
0.1050740000 0.1656980000 0.0194553000
0.1283890000 0.1672080000 0.0182193000
0.1565120000 0.1688870000 0.0169833000
0.1906920000 0.1693900000 0.0145724000
0.2276650000 0.1727930000 0.0133516000
0.2653850000 0.1785610000 0.0126345000
0.3048290000 0.1853210000 0.0129549000
0.3450980000 0.1927520000 0.0140383000
0.3857940000 0.2005490000 0.0155184000
0.4260470000 0.2082700000 0.0169985000
0.4665600000 0.2156410000 0.0179904000
0.5064010000 0.2219730000 0.0179141000
0.5424730000 0.2263220000 0.0162356000
0.5746390000 0.2296180000 0.0140230000
0.6040740000 0.2324860000 0.0117952000
0.6324250000 0.2352180000 0.0095216300
0.6606090000 0.2378580000 0.0071564800
0.6877850000 0.2403300000 0.0047760700
0.7128560000 0.2425730000 0.0025024800
0.7346460000 0.2444950000 0.0005035480
0.7530020000 0.2460980000 0.0000000000
0.7691620000 0.2475010000 0.0000000000
0.7858700000 0.2489360000 0.0000000000
0.8042570000 0.2505070000 0.0000000000
0.8239110000 0.2521710000 0.0000000000
0.8444190000 0.2539100000 0.0000000000
0.8655990000 0.2556950000 0.0000000000
0.8872820000 0.2575110000 0.0000000000
0.9092390000 0.2593420000 0.0000000000
0.0000000000 0.1763180000 0.0292210000
0.0188907000 0.1764100000 0.0220188000
0.0480812000 0.1782560000 0.0190127000
0.0710307000 0.1797670000 0.0169833000
0.0922713000 0.1810640000 0.0152285000
0.1150680000 0.1826960000 0.0138247000
0.1434200000 0.1852900000 0.0130159000
0.1793850000 0.1881740000 0.0121767000
0.2185700000 0.1897610000 0.0104677000
0.2594640000 0.1950560000 0.0104219000
0.2998550000 0.2024110000 0.0109865000
0.3413600000 0.2106510000 0.0125734000
0.3834440000 0.2193480000 0.0147402000
0.4251470000 0.2280160000 0.0169985000
0.4672160000 0.2364230000 0.0189364000
0.5087050000 0.2438700000 0.0198672000
0.5463490000 0.2492870000 0.0191653000
0.5796750000 0.2532540000 0.0175784000
0.6100100000 0.2566260000 0.0158541000
0.6388340000 0.2596480000 0.0139773000
0.6676280000 0.2626080000 0.0119326000
0.6953990000 0.2653700000 0.0098420700
0.7209580000 0.2678420000 0.0078126200
0.7431450000 0.2699320000 0.0059662800
0.7618070000 0.2716560000 0.0043793400
0.7782410000 0.2731670000 0.0029449900
0.7952090000 0.2747080000 0.0014496100
0.8138550000 0.2763710000 0.0000000000
0.8337830000 0.2781410000 0.0000000000
0.8545660000 0.2799570000 0.0000000000
0.8760200000 0.2818190000 0.0000000000
0.8979630000 0.2837110000 0.0000000000
0.9201650000 0.2856180000 0.0000000000
0.0000000000 0.1902490000 0.0240635000
0.0053101400 0.1892880000 0.0157015000
0.0334936000 0.1910280000 0.0123445000
0.0560006000 0.1928740000 0.0103609000
0.0769207000 0.1945830000 0.0086518700
0.0992294000 0.1964290000 0.0071107000
0.1270010000 0.1991910000 0.0060120500
0.1638210000 0.2037380000 0.0061036100
0.2048070000 0.2076750000 0.0058136900
0.2487980000 0.2110630000 0.0055542800
0.2921800000 0.2182350000 0.0069123400
0.3346000000 0.2271150000 0.0088654900
0.3778130000 0.2366370000 0.0117037000
0.4209350000 0.2463570000 0.0148623000
0.4647590000 0.2560310000 0.0178531000
0.5080950000 0.2648360000 0.0199893000
0.5476160000 0.2715800000 0.0205081000
0.5823610000 0.2765240000 0.0198215000
0.6138550000 0.2806440000 0.0187533000
0.6436710000 0.2842600000 0.0174411000
0.6731210000 0.2876330000 0.0158846000
0.7015030000 0.2907610000 0.0141756000
0.7276720000 0.2935680000 0.0124819000
0.7503470000 0.2959030000 0.0108949000
0.7694060000 0.2978260000 0.0094911100
0.7861600000 0.2994890000 0.0082093500
0.8034490000 0.3011670000 0.0068665600
0.8224310000 0.3029830000 0.0053254000
0.8426950000 0.3049060000 0.0036469100
0.8637980000 0.3068590000 0.0018616000
0.8855880000 0.3088580000 0.0000000000
0.9078510000 0.3108720000 0.0000000000
0.9303580000 0.3128710000 0.0000000000
0.0000000000 0.2022580000 0.0173800000
0.0000000000 0.2001370000 0.0076295100
0.0170291000 0.2017090000 0.0036316500
0.0388952000 0.2037080000 0.0014496100
0.0594339000 0.2056920000 0.0000000000
0.0813001000 0.2077520000 0.0000000000
0.1083390000 0.2105440000 0.0000000000
0.1445030000 0.2153200000 0.0000000000
0.1874570000 0.2220340000 0.0000000000
0.2321510000 0.2266120000 0.0000000000
0.2798810000 0.2323030000 0.0001525900
0.3249870000 0.2413670000 0.0029449900
0.3693750000 0.2517740000 0.0063172400
0.4137790000 0.2625010000 0.0103456000
0.4589610000 0.2733040000 0.0144503000
0.5042650000 0.2836350000 0.0179141000
0.5458300000 0.2919810000 0.0198367000
0.5822690000 0.2981770000 0.0202792000
0.6151370000 0.3032580000 0.0200961000
0.6461130000 0.3076680000 0.0195010000
0.6766160000 0.3117270000 0.0185702000
0.7057600000 0.3153580000 0.0173953000
0.7325400000 0.3185470000 0.0160983000
0.7557950000 0.3212330000 0.0148470000
0.7753110000 0.3234300000 0.0137026000
0.7924320000 0.3252920000 0.0126345000
0.8101010000 0.3271840000 0.0114900000
0.8294650000 0.3291980000 0.0101472000
0.8501260000 0.3313040000 0.0086823800
0.8716260000 0.3334550000 0.0070801900
0.8937820000 0.3356220000 0.0053559200
0.9164110000 0.3378040000 0.0035553500
0.9392540000 0.3399710000 0.0016784900
0.0000000000 0.2128480000 0.0093537800
0.0000000000 0.2094000000 0.0000000000
0.0000000000 0.2102540000 0.0000000000
0.0196384000 0.2120550000 0.0000000000
0.0395819000 0.2141300000 0.0000000000
0.0609598000 0.2164030000 0.0000000000
0.0872969000 0.2193180000 0.0000000000
0.1223770000 0.2239720000 0.0000000000
0.1649810000 0.2313120000 0.0000000000
0.2131380000 0.2401620000 0.0000000000
0.2601050000 0.2455020000 0.0000000000
0.3110400000 0.2537120000 0.0000000000
0.3577630000 0.2646070000 0.0000000000
0.4034940000 0.2763870000 0.0032959500
0.4503850000 0.2885790000 0.0085297900
0.4973370000 0.3003430000 0.0134279000
0.5407640000 0.3102920000 0.0169070000
0.5791560000 0.3180440000 0.0187228000
0.6136110000 0.3243460000 0.0196231000
0.6459600000 0.3297630000 0.0199283000
0.6776680000 0.3346910000 0.0197757000
0.7078970000 0.3390550000 0.0192721000
0.7355000000 0.3428090000 0.0185245000
0.7593650000 0.3459220000 0.0176852000
0.7794000000 0.3484400000 0.0168765000
0.7969790000 0.3505910000 0.0160678000
0.8150760000 0.3527430000 0.0151827000
0.8348970000 0.3550320000 0.0141146000
0.8560160000 0.3573970000 0.0128939000
0.8779580000 0.3598080000 0.0115358000
0.9005570000 0.3622190000 0.0100557000
0.9236130000 0.3646140000 0.0084687600
0.9468680000 0.3669790000 0.0068055200
0.0000000000 0.2235600000 0.0000000000
0.0000000000 0.2175020000 0.0000000000
0.0000000000 0.2171970000 0.0000000000
0.0000000000 0.2184630000 0.0000000000
0.0162051000 0.2203400000 0.0000000000
0.0368658000 0.2227050000 0.0000000000
0.0623789000 0.2257270000 0.0000000000
0.0962234000 0.2302740000 0.0000000000
0.1373920000 0.2373540000 0.0000000000
0.1860530000 0.2478220000 0.0000000000
0.2375680000 0.2585180000 0.0000000000
0.2866250000 0.2652320000 0.0000000000
0.3406270000 0.2759590000 0.0000000000
0.3890440000 0.2885630000 0.0000000000
0.4375830000 0.3021590000 0.0000000000
0.4866560000 0.3157240000 0.0057831700
0.5323570000 0.3276260000 0.0110475000
0.5727170000 0.3371180000 0.0145571000
0.6088650000 0.3448540000 0.0168307000
0.6427410000 0.3515220000 0.0182956000
0.6758980000 0.3575490000 0.0191653000
0.7074390000 0.3629050000 0.0195315000
0.7361560000 0.3674530000 0.0195010000
0.7609220000 0.3711910000 0.0192416000
0.7815980000 0.3741660000 0.0188602000
0.7997250000 0.3766840000 0.0184176000
0.8183570000 0.3792020000 0.0178683000
0.8387430000 0.3818570000 0.0171511000
0.8604100000 0.3846040000 0.0162814000
0.8829180000 0.3873500000 0.0152590000
0.9060650000 0.3900970000 0.0140993000
0.9296250000 0.3927980000 0.0128176000
0.9533990000 0.3954530000 0.0114290000
0.0000000000 0.2366060000 0.0000000000
0.0000000000 0.2244300000 0.0000000000
0.0000000000 0.2225070000 0.0000000000
0.0000000000 0.2228580000 0.0000000000
0.0000000000 0.2242010000 0.0000000000
0.0106050000 0.2263070000 0.0000000000
0.0351110000 0.2293280000 0.0000000000
0.0675975000 0.2337680000 0.0000000000
0.1069960000 0.2404060000 0.0000000000
0.1541920000 0.2507060000 0.0000000000
0.2073850000 0.2642250000 0.0000000000
0.2612950000 0.2765390000 0.0000000000
0.3127790000 0.2851300000 0.0000000000
0.3691620000 0.2982680000 0.0000000000
0.4210570000 0.3130690000 0.0000000000
0.4721140000 0.3283890000 0.0000000000
0.5201800000 0.3423820000 0.0021820400
0.5628600000 0.3539020000 0.0075379600
0.6009770000 0.3633480000 0.0113832000
0.6365910000 0.3714810000 0.0142214000
0.6713210000 0.3788200000 0.0163119000
0.7042500000 0.3852900000 0.0177157000
0.7341730000 0.3907990000 0.0185702000
0.7598840000 0.3952540000 0.0189975000
0.7813230000 0.3988100000 0.0191653000
0.8000760000 0.4018160000 0.0191653000
0.8193330000 0.4047760000 0.0190433000
0.8403750000 0.4079040000 0.0187686000
0.8626990000 0.4110930000 0.0183261000
0.8858470000 0.4142980000 0.0177310000
0.9096360000 0.4174560000 0.0169833000
0.9338060000 0.4205690000 0.0160678000
0.9581440000 0.4235900000 0.0150454000
0.0000000000 0.2497140000 0.0000000000
0.0000000000 0.2336770000 0.0000000000
0.0000000000 0.2269170000 0.0000000000
0.0000000000 0.2259860000 0.0000000000
0.0000000000 0.2264290000 0.0000000000
0.0000000000 0.2278930000 0.0000000000
0.0072480400 0.2305640000 0.0000000000
0.0382086000 0.2347450000 0.0000000000
0.0757458000 0.2409250000 0.0000000000
0.1207600000 0.2505070000 0.0000000000
0.1729760000 0.2644080000 0.0000000000
0.2298920000 0.2808120000 0.0000000000
0.2856030000 0.2942860000 0.0000000000
0.3393300000 0.3051040000 0.0000000000
0.3999240000 0.3212020000 0.0000000000
0.4546580000 0.3381400000 0.0000000000
0.5048600000 0.3540700000 0.0000000000
0.5498130000 0.3676510000 0.0000000000
0.5899600000 0.3788970000 0.0034638000
0.6273900000 0.3886170000 0.0077363200
0.6637980000 0.3974060000 0.0111543000
0.6982380000 0.4051420000 0.0137484000
0.7294580000 0.4117190000 0.0155947000
0.7562070000 0.4170290000 0.0168154000
0.7785000000 0.4212560000 0.0175937000
0.7979250000 0.4247810000 0.0181125000
0.8178840000 0.4282900000 0.0184939000
0.8396280000 0.4319680000 0.0187228000
0.8626840000 0.4357060000 0.0187991000
0.8865490000 0.4394290000 0.0187076000
0.9110250000 0.4430910000 0.0184176000
0.9358660000 0.4466620000 0.0179599000
0.9608610000 0.4501410000 0.0173495000
0.0000000000 0.2638280000 0.0000000000
0.0000000000 0.2445110000 0.0000000000
0.0000000000 0.2352790000 0.0000000000
0.0000000000 0.2301670000 0.0000000000
0.0000000000 0.2281990000 0.0000000000
0.0000000000 0.2286260000 0.0000000000
0.0000000000 0.2304420000 0.0000000000
0.0089723000 0.2340890000 0.0000000000
0.0444648000 0.2396730000 0.0000000000
0.0870832000 0.2483860000 0.0000000000
0.1370110000 0.2614940000 0.0000000000
0.1937740000 0.2790880000 0.0000000000
0.2539250000 0.2980240000 0.0000000000
0.3105060000 0.3122910000 0.0000000000
0.3687340000 0.3263140000 0.0000000000
0.4332800000 0.3453730000 0.0000000000
0.4871750000 0.3633020000 0.0000000000
0.5340510000 0.3786530000 0.0000000000
0.5761350000 0.3916690000 0.0000000000
0.6153660000 0.4030060000 0.0000000000
0.6535130000 0.4133360000 0.0038147600
0.6895250000 0.4224460000 0.0076600300
0.7221030000 0.4301820000 0.0105745000
0.7499810000 0.4364390000 0.0126650000
0.7731440000 0.4413980000 0.0141299000
0.7933470000 0.4455480000 0.0152285000
0.8140230000 0.4496530000 0.0161593000
0.8365610000 0.4539560000 0.0169833000
0.8604100000 0.4583200000 0.0176394000
0.8850540000 0.4626380000 0.0180972000
0.9102770000 0.4668800000 0.0183719000
0.9358660000 0.4710150000 0.0184329000
0.9615320000 0.4749980000 0.0182956000
0.0000000000 0.2796980000 0.0000000000
0.0000000000 0.2567790000 0.0000000000
0.0000000000 0.2452120000 0.0000000000
0.0000000000 0.2384530000 0.0000000000
0.0000000000 0.2337380000 0.0000000000
0.0000000000 0.2301520000 0.0000000000
0.0000000000 0.2302740000 0.0000000000
0.0000000000 0.2328680000 0.0000000000
0.0144961000 0.2375830000 0.0000000000
0.0545663000 0.2453190000 0.0000000000
0.1017780000 0.2572820000 0.0000000000
0.1565270000 0.2743570000 0.0000000000
0.2175020000 0.2953690000 0.0000000000
0.2797740000 0.3162280000 0.0000000000
0.3389030000 0.3316700000 0.0000000000
0.4019680000 0.3494930000 0.0000000000
0.4661940000 0.3700920000 0.0000000000
0.5165640000 0.3874720000 0.0000000000
0.5601430000 0.4018460000 0.0000000000
0.6010680000 0.4147400000 0.0000000000
0.6408790000 0.4265660000 0.0000000000
0.6784620000 0.4370790000 0.0000000000
0.7124280000 0.4460360000 0.0036926800
0.7414360000 0.4532850000 0.0066834500
0.7655300000 0.4590370000 0.0088807500
0.7865110000 0.4638590000 0.0105898000
0.8079650000 0.4686050000 0.0121157000
0.8312960000 0.4735790000 0.0135653000
0.8559850000 0.4786140000 0.0148623000
0.8814530000 0.4836190000 0.0159457000
0.9074850000 0.4885020000 0.0168002000
0.9338370000 0.4932480000 0.0174411000
0.9602810000 0.4978100000 0.0178531000
0.0000000000 0.2971690000 0.0000000000
0.0000000000 0.2708170000 0.0000000000
0.0000000000 0.2567640000 0.0000000000
0.0000000000 0.2481880000 0.0000000000
0.0000000000 0.2419470000 0.0000000000
0.0000000000 0.2368960000 0.0000000000
0.0000000000 0.2326090000 0.0000000000
0.0000000000 0.2322880000 0.0000000000
0.0000000000 0.2358130000 0.0000000000
0.0251926000 0.2423740000 0.0000000000
0.0695811000 0.2530400000 0.0000000000
0.1216300000 0.2689400000 0.0000000000
0.1814760000 0.2902110000 0.0000000000
0.2457160000 0.3141370000 0.0000000000
0.3110700000 0.3365530000 0.0000000000
0.3729920000 0.3536740000 0.0000000000
0.4367130000 0.3739380000 0.0000000000
0.4966510000 0.3937590000 0.0000000000
0.5434650000 0.4099180000 0.0000000000
0.5855800000 0.4238960000 0.0000000000
0.6268710000 0.4370950000 0.0000000000
0.6658730000 0.4488900000 0.0000000000
0.7011370000 0.4590220000 0.0000000000
0.7312580000 0.4672470000 0.0000000000
0.7562520000 0.4737930000 0.0022735900
0.7779810000 0.4792710000 0.0045777100
0.8001980000 0.4846720000 0.0067139700
0.8243530000 0.4903330000 0.0088044600
0.8498510000 0.4960860000 0.0107424000
0.8761430000 0.5017620000 0.0124514000
0.9029830000 0.5073170000 0.0139467000
0.9301290000 0.5127030000 0.0151675000
0.9573210000 0.5178760000 0.0161440000
0.0000000000 0.3136190000 0.0000000000
0.0000000000 0.2865340000 0.0000000000
0.0000000000 0.2701150000 0.0000000000
0.0000000000 0.2596780000 0.0000000000
0.0000000000 0.2518040000 0.0000000000
0.0000000000 0.2451820000 0.0000000000
0.0000000000 0.2392160000 0.0000000000
0.0000000000 0.2342720000 0.0000000000
0.0000000000 0.2352940000 0.0000000000
0.0000152590 0.2404520000 0.0000000000
0.0416419000 0.2497290000 0.0000000000
0.0908675000 0.2642100000 0.0000000000
0.1484550000 0.2846110000 0.0000000000
0.2126040000 0.3096360000 0.0000000000
0.2813150000 0.3363240000 0.0000000000
0.3482720000 0.3590450000 0.0000000000
0.4100400000 0.3776760000 0.0000000000
0.4697490000 0.3973910000 0.0000000000
0.5251540000 0.4156560000 0.0000000000
