Kodak 2383 D65 Rebuild Arri-C3.cube
TITLE "Created by Florian Rubenberger"
# This is my current version of a Kodak 2383 D65 LUT (V 0.3).
LUT_3D_SIZE 5
0.1011220000 0.0608225000 0.1352410000
0.1778440000 0.0660716000 0.1176620000
0.4195010000 0.0286564000 0.0521401000
0.6565960000 0.0001068130 0.0056763600
0.8770280000 0.0302586000 0.0216983000
0.0774395000 0.1472500000 0.1306630000
0.2264440000 0.1920650000 0.1324940000
0.5586180000 0.2552990000 0.1332570000
0.8440530000 0.3268480000 0.1359730000
1.0000000000 0.4160370000 0.1811400000
0.0222171000 0.1388270000 0.1253070000
0.0738689000 0.1619290000 0.0925765000
0.5358050000 0.4158540000 0.1334400000
0.9126120000 0.5755700000 0.1982300000
1.0000000000 0.7214770000 0.2537270000
0.0000000000 0.1531550000 0.1117720000
0.0000000000 0.1566950000 0.0741131000
0.1711910000 0.3552300000 0.0722515000
0.8507820000 0.6933700000 0.1608610000
1.0000000000 0.8934310000 0.3216140000
0.0000000000 0.1626150000 0.0894636000
0.0000000000 0.1632410000 0.0509041000
0.0000000000 0.2453650000 0.0000000000
0.5668880000 0.6565190000 0.0954452000
1.0000000000 0.9833680000 0.2356300000
0.0796063000 0.0785992000 0.1986880000
0.1750820000 0.0636606000 0.1647210000
0.4206450000 0.0325628000 0.1085220000
0.6833910000 0.0081330600 0.0650645000
0.9137100000 0.0538643000 0.0924086000
0.0808270000 0.1571680000 0.2731210000
0.2363262400 0.2467788400 0.2584202000
0.5553674800 0.2884529600 0.2559426800
0.8744050400 0.3687537200 0.2854555200
1.0000000000 0.4545510000 0.3114670000
0.0390478000 0.1474020000 0.1555200000
0.0941488120 0.2283214400 0.1559290000
0.5591551600 0.5019222800 0.3079012800
0.9094926800 0.6604051200 0.4165566400
1.0000000000 0.7865420000 0.4532080000
0.0000000000 0.1499500000 0.1317770000
0.0222079800 0.1388330000 0.1253070000
0.0723283920 0.2114309200 0.0837592120
0.8164572400 0.7136621200 0.3210877200
1.0000000000 0.9483940000 0.5540550000
0.0000000000 0.1579000000 0.1170670000
0.0000000000 0.1531400000 0.1117720000
0.0000000000 0.1618680000 0.0646677000
0.3480280000 0.5426570000 0.1102620000
1.0000000000 0.9816740000 0.4192110000
0.0389868000 0.0707256000 0.4246590000
0.1312280000 0.0332494000 0.4141450000
0.3918520000 0.0120851000 0.2964830000
0.6398570000 0.0084840200 0.2778210000
0.9009690000 0.0574502000 0.3205620000
0.0280613000 0.1329370000 0.4283510000
0.1320406240 0.1990692000 0.4393029200
0.5205359200 0.2573813600 0.4710845200
0.8609793200 0.3537388800 0.5340591600
1.0000000000 0.4531620000 0.5977870000
0.0019684100 0.1718470000 0.4600440000
0.1527015560 0.3740300800 0.5173224400
0.5760073600 0.5805667200 0.5706056400
0.9019905200 0.6724804000 0.6080665600
1.0000000000 0.8210120000 0.7052870000
0.0000000000 0.1773710000 0.3310900000
0.0392626720 0.1620571200 0.1741886800
0.1627333200 0.4125501200 0.2967892400
0.8521092000 0.8085882000 0.6001818400
1.0000000000 0.9693900000 0.7531550000
0.0000000000 0.1682760000 0.1961390000
0.0000000000 0.1520410000 0.1294270000
0.0222171000 0.1388420000 0.1253070000
0.0891127000 0.3056530000 0.0874189000
1.0000000000 0.9725640000 0.6036010000
0.0000000000 0.0607156000 0.6439460000
0.0738384000 0.0299229000 0.6549020000
0.3581290000 0.0000000000 0.5303880000
0.6193940000 0.0000000000 0.4647440000
0.8697640000 0.0401465000 0.5142290000
0.0000000000 0.1214470000 0.5797510000
0.0651505320 0.1409085200 0.5909494000
0.3802412800 0.1789242760 0.6692924000
0.8036890400 0.2869190800 0.6942725600
1.0000000000 0.4178230000 0.7858550000
0.0000000000 0.1824370000 0.6827800000
0.0447058760 0.2528791600 0.5787723200
0.3356979200 0.4667265600 0.6979336800
0.8532467600 0.6090602800 0.7957531600
1.0000000000 0.7885400000 0.9424280000
0.0000000000 0.2824600000 0.6812850000
0.0314262412 0.3343974400 0.6026994800
0.3796334400 0.6485328000 0.7642511600
0.8847856400 0.8938441600 0.8775166000
1.0000000000 0.9635310000 0.9337450000
0.0000000000 0.2945600000 0.5426260000
0.0000000000 0.2519110000 0.3952700000
0.0349279000 0.1878690000 0.2068510000
0.3145340000 0.6001220000 0.4754860000
1.0000000000 1.0000000000 0.8932630000
0.0000000000 0.0532998000 0.8693370000
0.0361486000 0.0301976000 0.8762800000
0.2541080000 0.0000000000 0.8222170000
0.5998930000 0.0000000000 0.6925610000
0.8546270000 0.0122530000 0.7076680000
0.0000000000 0.1097580000 0.7888460000
0.0243534000 0.1243760000 0.8226440000
0.2187990000 0.1631650000 0.9070120000
0.7500270000 0.2108030000 0.9165640000
1.0000000000 0.3557180000 0.9709160000
0.0000000000 0.1937590000 0.8040740000
0.0000000000 0.2393380000 0.7169910000
0.1353480000 0.3209430000 0.7987180000
0.6854500000 0.4568400000 0.9413600000
1.0000000000 0.6781110000 1.0000000000
0.0000000000 0.3430530000 0.8934770000
0.0181582000 0.3982910000 0.8623180000
0.1311670000 0.4935230000 0.7977260000
0.6226290000 0.7395900000 0.9423060000
1.0000000000 0.9345390000 1.0000000000
0.0000000000 0.4565040000 0.8882120000
0.0062714600 0.5002670000 0.8642860000
0.1122300000 0.5476460000 0.8019840000
0.6471960000 0.8949110000 0.9678190000
1.0000000000 1.0000000000 1.0000000000
