Kodak 2383 D65 Rebuild Arri-C3.cube
TITLE "Created by Florian Rubenberger"
# This is my current version of a Kodak 2383 D65 LUT (V 0.3).
LUT_3D_SIZE 33
0.1011220000 0.0608225000 0.1352410000
0.1073780000 0.0610666000 0.1346760000
0.1137870000 0.0627756000 0.1338830000
0.1209120000 0.0643626000 0.1326620000
0.1287400000 0.0652018000 0.1309830000
0.1374070000 0.0663767000 0.1288780000
0.1481960000 0.0672007000 0.1261620000
0.1614860000 0.0668498000 0.1225450000
0.1778440000 0.0660716000 0.1176620000
0.1993590000 0.0635996000 0.1112990000
0.2243690000 0.0605020000 0.1039750000
0.2538030000 0.0562295000 0.0953994000
0.2854810000 0.0505379000 0.0860456000
0.3152360000 0.0458686000 0.0776074000
0.3506070000 0.0395972000 0.0683757000
0.3854730000 0.0342870000 0.0600443000
0.4195010000 0.0286564000 0.0521401000
0.4514530000 0.0236057000 0.0445716000
0.4812540000 0.0190738000 0.0375067000
0.5099870000 0.0144656000 0.0308385000
0.5392540000 0.0103304000 0.0242466000
0.5687340000 0.0065766400 0.0183413000
0.5976500000 0.0039978600 0.0136263000
0.6261390000 0.0022583400 0.0096894800
0.6565960000 0.0001068130 0.0056763600
0.6900740000 0.0000000000 0.0019379000
0.7237050000 0.0000000000 0.0000000000
0.7575340000 0.0000000000 0.0000000000
0.7907680000 0.0000000000 0.0000000000
0.8127720000 0.0048828900 0.0011902000
0.8325320000 0.0125582000 0.0073548500
0.8539100000 0.0214847000 0.0144045000
0.8770280000 0.0302586000 0.0216983000
0.1010300000 0.0920729000 0.1355150000
0.1090410000 0.0924392000 0.1351950000
0.1154340000 0.0943770000 0.1348590000
0.1224990000 0.0967727000 0.1341880000
0.1304040000 0.0983444000 0.1333030000
0.1398790000 0.0987564000 0.1313500000
0.1512020000 0.0989242000 0.1287400000
0.1649500000 0.0982071000 0.1254140000
0.1829100000 0.0962387000 0.1208820000
0.2053860000 0.0930495000 0.1147480000
0.2320740000 0.0884108000 0.1075150000
0.2630200000 0.0832227000 0.0993210000
0.2957050000 0.0772259000 0.0908370000
0.3269250000 0.0719310000 0.0828260000
0.3642180000 0.0654002000 0.0741741000
0.3997250000 0.0604105000 0.0669108000
0.4355990000 0.0551156000 0.0598917000
0.4668960000 0.0503395000 0.0531930000
0.4974440000 0.0459754000 0.0471504000
0.5274130000 0.0422522000 0.0417029000
0.5580680000 0.0388342000 0.0364080000
0.5889370000 0.0354925000 0.0316167000
0.6183410000 0.0340429000 0.0283513000
0.6484780000 0.0335546000 0.0260777000
0.6818490000 0.0325017000 0.0236515000
0.7165640000 0.0320745000 0.0215000000
0.7517660000 0.0329442000 0.0206607000
0.7874720000 0.0350042000 0.0213779000
0.8214080000 0.0389258000 0.0236210000
0.8428320000 0.0465553000 0.0299077000
0.8638590000 0.0557259000 0.0373999000
0.8869460000 0.0656138000 0.0456092000
0.9119860000 0.0755932000 0.0542458000
0.1011670000 0.1127030000 0.1358820000
0.1076220000 0.1158920000 0.1352560000
0.1183030000 0.1149160000 0.1356070000
0.1255210000 0.1161210000 0.1353170000
0.1336690000 0.1174790000 0.1343560000
0.1432670000 0.1187760000 0.1329820000
0.1549250000 0.1187150000 0.1306940000
0.1694820000 0.1179370000 0.1277330000
0.1879610000 0.1158010000 0.1235830000
0.2122530000 0.1125200000 0.1184100000
0.2396280000 0.1078970000 0.1116200000
0.2727250000 0.1022960000 0.1035170000
0.3052870000 0.0971084000 0.0962081000
0.3391930000 0.0921035000 0.0888380000
0.3772030000 0.0861677000 0.0809949000
0.4140990000 0.0820783000 0.0747845000
0.4513770000 0.0780804000 0.0691539000
0.4834520000 0.0744182000 0.0636759000
0.5147020000 0.0706798000 0.0585641000
0.5463340000 0.0681010000 0.0542611000
0.5782860000 0.0663310000 0.0507515000
0.6103910000 0.0646830000 0.0477302000
0.6411690000 0.0644541000 0.0457465000
0.6728010000 0.0654765000 0.0449989000
0.7094380000 0.0663462000 0.0444495000
0.7455410000 0.0682841000 0.0446174000
0.7823910000 0.0704967000 0.0454261000
0.8195160000 0.0744488000 0.0475776000
0.8518810000 0.0804303000 0.0517739000
0.8739450000 0.0897231000 0.0596475000
0.8957350000 0.1001300000 0.0682383000
0.9205160000 0.1113450000 0.0777142000
0.9480430000 0.1233080000 0.0880598000
0.1002060000 0.1260850000 0.1364000000
0.1053940000 0.1296560000 0.1351490000
0.1177690000 0.1303580000 0.1354540000
0.1285730000 0.1304490000 0.1359270000
0.1379110000 0.1311210000 0.1355150000
0.1483790000 0.1320820000 0.1343250000
0.1608910000 0.1324940000 0.1325400000
0.1761350000 0.1322500000 0.1294420000
0.1951170000 0.1303430000 0.1254750000
0.2201720000 0.1272140000 0.1201040000
0.2486920000 0.1237200000 0.1140760000
0.2832840000 0.1183340000 0.1067980000
0.3157240000 0.1141990000 0.1004650000
0.3528500000 0.1102310000 0.0940261000
0.3916080000 0.1060040000 0.0876936000
0.4303500000 0.1030900000 0.0823835000
0.4680400000 0.1008160000 0.0782788000
0.5022510000 0.0991531000 0.0746166000
0.5343250000 0.0971695000 0.0714580000
0.5671630000 0.0960098000 0.0685435000
0.6009610000 0.0959793000 0.0667887000
0.6346070000 0.0970016000 0.0666972000
0.6673230000 0.0989853000 0.0666514000
0.7007250000 0.1012590000 0.0670939000
0.7385980000 0.1035630000 0.0674449000
0.7758450000 0.1071180000 0.0688334000
0.8136870000 0.1108720000 0.0708324000
0.8513620000 0.1159230000 0.0737011000
0.8816050000 0.1244980000 0.0801709000
0.9052720000 0.1362330000 0.0900740000
0.9294270000 0.1488060000 0.1004040000
0.9549100000 0.1608450000 0.1105670000
0.9820860000 0.1726710000 0.1200120000
0.0987869000 0.1353630000 0.1364610000
0.1033340000 0.1388570000 0.1353170000
0.1128860000 0.1410850000 0.1344470000
0.1280690000 0.1417410000 0.1354090000
0.1409320000 0.1427480000 0.1361410000
0.1529720000 0.1432970000 0.1356980000
0.1670710000 0.1433590000 0.1343400000
0.1842530000 0.1433280000 0.1317620000
0.2053710000 0.1423970000 0.1277640000
0.2308380000 0.1400780000 0.1226980000
0.2605330000 0.1370870000 0.1167470000
0.2955370000 0.1338060000 0.1102770000
0.3284350000 0.1312890000 0.1052410000
0.3673760000 0.1284050000 0.0995804000
0.4074160000 0.1271840000 0.0951400000
0.4479440000 0.1263140000 0.0914626000
0.4860150000 0.1260400000 0.0885481000
0.5218590000 0.1268480000 0.0866102000
0.5565270000 0.1276260000 0.0856489000
0.5906460000 0.1287400000 0.0844587000
0.6257570000 0.1302970000 0.0836652000
0.6595410000 0.1329670000 0.0844129000
0.6932170000 0.1367360000 0.0858778000
0.7289080000 0.1402460000 0.0871138000
0.7671320000 0.1442280000 0.0885634000
0.8059050000 0.1497370000 0.0914321000
0.8451970000 0.1561150000 0.0957504000
0.8838330000 0.1634550000 0.1003280000
0.9112540000 0.1736170000 0.1085220000
0.9331200000 0.1848780000 0.1170820000
0.9555050000 0.1960170000 0.1252310000
0.9794310000 0.2068060000 0.1334250000
1.0000000000 0.2183260000 0.1417720000
0.0951858000 0.1412530000 0.1356220000
0.0998093000 0.1447930000 0.1343560000
0.1076830000 0.1486530000 0.1333790000
0.1229420000 0.1511710000 0.1342180000
0.1400470000 0.1523310000 0.1353320000
0.1558710000 0.1538410000 0.1360340000
0.1721220000 0.1542230000 0.1356830000
0.1912110000 0.1542080000 0.1335010000
0.2152130000 0.1533380000 0.1302050000
0.2430760000 0.1524380000 0.1260700000
0.2747230000 0.1507290000 0.1206840000
0.3090710000 0.1494470000 0.1149920000
0.3431910000 0.1494620000 0.1108720000
0.3837030000 0.1488820000 0.1065080000
0.4252080000 0.1500570000 0.1036090000
0.4669870000 0.1527280000 0.1018230000
0.5060500000 0.1557640000 0.1005570000
0.5423510000 0.1586180000 0.0996414000
0.5779050000 0.1616850000 0.0992294000
0.6131230000 0.1646300000 0.0992294000
0.6487530000 0.1680020000 0.0992142000
0.6829790000 0.1725490000 0.1009840000
0.7178760000 0.1786980000 0.1037160000
0.7563290000 0.1849390000 0.1063250000
0.7954070000 0.1909820000 0.1091480000
0.8337380000 0.1971920000 0.1118490000
0.8715650000 0.2027920000 0.1141680000
0.9062180000 0.2092930000 0.1168690000
0.9291370000 0.2193790000 0.1234300000
0.9503620000 0.2310830000 0.1318840000
0.9739990000 0.2439310000 0.1409170000
1.0000000000 0.2570690000 0.1507440000
1.0000000000 0.2705420000 0.1603110000
0.0904250000 0.1449610000 0.1344170000
0.0951400000 0.1485010000 0.1328150000
0.1018540000 0.1530790000 0.1315020000
0.1143820000 0.1570000000 0.1317920000
0.1336840000 0.1602960000 0.1337300000
0.1545280000 0.1629510000 0.1350880000
0.1744720000 0.1649200000 0.1355460000
0.1963990000 0.1656210000 0.1348590000
0.2226900000 0.1654230000 0.1323110000
0.2527200000 0.1654540000 0.1290150000
0.2885480000 0.1655760000 0.1251240000
0.3229570000 0.1664910000 0.1210350000
0.3595330000 0.1686730000 0.1174030000
0.4014650000 0.1717710000 0.1143970000
0.4438240000 0.1763940000 0.1130240000
0.4860610000 0.1816590000 0.1124900000
0.5248340000 0.1873350000 0.1117880000
0.5610590000 0.1929960000 0.1112230000
0.5972690000 0.1982450000 0.1113300000
0.6333260000 0.2042270000 0.1122000000
0.6704360000 0.2106810000 0.1141680000
0.7056690000 0.2178990000 0.1167620000
0.7400470000 0.2245980000 0.1191580000
0.7775390000 0.2299840000 0.1197220000
0.8143890000 0.2349740000 0.1205620000
0.8509960000 0.2406500000 0.1216140000
0.8884110000 0.2471500000 0.1238120000
0.9220260000 0.2563060000 0.1283740000
0.9450060000 0.2694900000 0.1370410000
0.9677730000 0.2829480000 0.1466090000
0.9912260000 0.2962390000 0.1552910000
1.0000000000 0.3085830000 0.1635310000
1.0000000000 0.3208510000 0.1712370000
0.0843671000 0.1468680000 0.1324640000
0.0893721000 0.1505300000 0.1307390000
0.0953689000 0.1552300000 0.1292440000
0.1051800000 0.1604940000 0.1288780000
0.1230180000 0.1656210000 0.1309070000
0.1454180000 0.1698790000 0.1324480000
0.1712980000 0.1745170000 0.1342490000
0.1979100000 0.1771720000 0.1343860000
0.2266730000 0.1782100000 0.1331200000
0.2595250000 0.1800560000 0.1316550000
0.2976580000 0.1810640000 0.1280380000
0.3342490000 0.1851680000 0.1267870000
0.3757840000 0.1903260000 0.1254290000
0.4180670000 0.1959560000 0.1231560000
0.4610670000 0.2037840000 0.1222550000
0.5025710000 0.2116730000 0.1214470000
0.5416040000 0.2202950000 0.1219040000
0.5795530000 0.2301980000 0.1231250000
0.6169990000 0.2387270000 0.1241630000
0.6535590000 0.2461590000 0.1253680000
0.6881510000 0.2530710000 0.1255660000
0.7212790000 0.2593420000 0.1259780000
0.7542840000 0.2657970000 0.1264520000
0.7920500000 0.2717780000 0.1268180000
0.8297250000 0.2795150000 0.1283130000
0.8677650000 0.2878610000 0.1313040000
0.9053180000 0.2968800000 0.1340660000
0.9352410000 0.3074240000 0.1390250000
0.9555350000 0.3202560000 0.1460140000
0.9763940000 0.3327080000 0.1531400000
0.9984440000 0.3453570000 0.1599600000
1.0000000000 0.3576710000 0.1671020000
1.0000000000 0.3699240000 0.1743950000
0.0774395000 0.1472500000 0.1306630000
0.0822919000 0.1509580000 0.1286950000
0.0885481000 0.1553220000 0.1268940000
0.0959335000 0.1609220000 0.1257950000
0.1104300000 0.1677580000 0.1271230000
0.1320970000 0.1741360000 0.1294580000
0.1600670000 0.1812620000 0.1317310000
0.1915310000 0.1877320000 0.1326160000
0.2264440000 0.1920650000 0.1324940000
0.2609600000 0.1945070000 0.1316240000
0.3032270000 0.1985050000 0.1308000000
0.3416500000 0.2050050000 0.1306480000
0.3852450000 0.2121160000 0.1296710000
0.4305180000 0.2207680000 0.1296100000
0.4748000000 0.2307620000 0.1298540000
0.5176780000 0.2425420000 0.1310900000
0.5586180000 0.2552990000 0.1332570000
0.5964900000 0.2664990000 0.1343400000
0.6326390000 0.2757150000 0.1339590000
0.6667730000 0.2832530000 0.1322800000
0.6989850000 0.2907910000 0.1310900000
0.7318530000 0.2999310000 0.1313800000
0.7677880000 0.3092240000 0.1329370000
0.8061800000 0.3183030000 0.1342340000
0.8440530000 0.3268480000 0.1359730000
0.8807200000 0.3350270000 0.1375750000
0.9168840000 0.3427940000 0.1395280000
0.9421840000 0.3538720000 0.1445490000
0.9627370000 0.3662470000 0.1518430000
0.9840850000 0.3789730000 0.1591060000
1.0000000000 0.3912870000 0.1665220000
1.0000000000 0.4038450000 0.1736020000
1.0000000000 0.4160370000 0.1811400000
0.0701457000 0.1463340000 0.1292590000
0.0745403000 0.1497060000 0.1270310000
0.0803540000 0.1540090000 0.1250930000
0.0875563000 0.1591670000 0.1229720000
0.0985275000 0.1664000000 0.1238270000
0.1170670000 0.1746400000 0.1259780000
0.1429770000 0.1839020000 0.1284350000
0.1761200000 0.1932400000 0.1294420000
0.2174260000 0.2026700000 0.1306170000
0.2585790000 0.2098880000 0.1307390000
0.3017170000 0.2153810000 0.1302360000
0.3430380000 0.2238500000 0.1316400000
0.3897460000 0.2330050000 0.1324790000
0.4366670000 0.2438850000 0.1336230000
0.4854200000 0.2577400000 0.1377130000
0.5308160000 0.2724350000 0.1407640000
0.5702450000 0.2861980000 0.1418330000
0.6061040000 0.2976580000 0.1400930000
0.6411540000 0.3082020000 0.1384450000
0.6770120000 0.3186850000 0.1378350000
0.7117880000 0.3305870000 0.1393910000
0.7468990000 0.3418480000 0.1419390000
0.7843750000 0.3512020000 0.1431450000
0.8214240000 0.3590910000 0.1435260000
0.8579840000 0.3671780000 0.1440450000
0.8943770000 0.3753260000 0.1450520000
0.9281610000 0.3844970000 0.1468220000
0.9500110000 0.3969020000 0.1521630000
0.9693600000 0.4104070000 0.1580680000
0.9906620000 0.4235450000 0.1646910000
1.0000000000 0.4367900000 0.1706720000
1.0000000000 0.4495920000 0.1771270000
1.0000000000 0.4625010000 0.1836120000
0.0623636000 0.1445330000 0.1287100000
0.0667430000 0.1478450000 0.1266800000
0.0717174000 0.1514760000 0.1239950000
0.0784466000 0.1564050000 0.1219650000
0.0873579000 0.1626760000 0.1188370000
0.1028150000 0.1720150000 0.1202410000
0.1244830000 0.1824980000 0.1234000000
0.1547420000 0.1940490000 0.1261920000
0.1958650000 0.2074920000 0.1274280000
0.2460820000 0.2210880000 0.1280840000
0.2954450000 0.2310830000 0.1287100000
0.3393300000 0.2410320000 0.1310440000
0.3877170000 0.2519570000 0.1324030000
0.4387880000 0.2659950000 0.1364000000
0.4901500000 0.2826120000 0.1417720000
0.5345240000 0.2984820000 0.1439690000
0.5740900000 0.3125200000 0.1442440000
0.6121310000 0.3257340000 0.1444570000
0.6518960000 0.3399400000 0.1467770000
0.6909440000 0.3533990000 0.1495540000
0.7265280000 0.3661710000 0.1517810000
0.7603720000 0.3768830000 0.1519650000
0.7971470000 0.3865260000 0.1513540000
0.8329440000 0.3961390000 0.1505300000
0.8684820000 0.4058440000 0.1498890000
0.9038380000 0.4152740000 0.1498740000
0.9340200000 0.4255280000 0.1513540000
0.9541470000 0.4393680000 0.1569540000
0.9741360000 0.4530860000 0.1632560000
0.9959870000 0.4668040000 0.1694970000
1.0000000000 0.4799880000 0.1764100000
1.0000000000 0.4932330000 0.1828490000
1.0000000000 0.5060500000 0.1898220000
0.0547341000 0.1423970000 0.1293050000
0.0588846000 0.1453420000 0.1265890000
0.0635843000 0.1486840000 0.1233690000
0.0694743000 0.1528190000 0.1197070000
0.0777447000 0.1584340000 0.1160140000
0.0895552000 0.1664150000 0.1143360000
0.1071790000 0.1773250000 0.1165030000
0.1331350000 0.1905090000 0.1209430000
0.1691000000 0.2064700000 0.1242690000
0.2195320000 0.2242770000 0.1246360000
0.2787670000 0.2419930000 0.1259020000
0.3315480000 0.2560770000 0.1284660000
0.3808190000 0.2686810000 0.1310900000
0.4350650000 0.2857400000 0.1360490000
0.4867480000 0.3040510000 0.1406580000
0.5326770000 0.3197990000 0.1433740000
0.5750060000 0.3350120000 0.1459980000
0.6188910000 0.3517360000 0.1512170000
0.6624250000 0.3684440000 0.1566190000
0.7002210000 0.3830010000 0.1586180000
0.7348440000 0.3966280000 0.1590600000
0.7685970000 0.4088650000 0.1583120000
0.8061340000 0.4200050000 0.1572290000
0.8419320000 0.4310370000 0.1565880000
0.8784620000 0.4410930000 0.1562680000
0.9144270000 0.4514230000 0.1571830000
0.9415580000 0.4639960000 0.1607840000
0.9615630000 0.4787210000 0.1662780000
0.9822690000 0.4931260000 0.1727930000
1.0000000000 0.5067370000 0.1786980000
1.0000000000 0.5207750000 0.1850160000
1.0000000000 0.5342640000 0.1913480000
1.0000000000 0.5477840000 0.1973910000
0.0474556000 0.1403520000 0.1281910000
0.0514839000 0.1429160000 0.1254900000
0.0557412000 0.1456780000 0.1220570000
0.0610208000 0.1494010000 0.1181660000
0.0680095000 0.1541470000 0.1138780000
0.0782330000 0.1603880000 0.1102160000
0.0927596000 0.1703360000 0.1104750000
0.1130540000 0.1835970000 0.1135580000
0.1424430000 0.2001070000 0.1183030000
0.1854120000 0.2200350000 0.1212180000
0.2465710000 0.2431680000 0.1221330000
0.3136950000 0.2647140000 0.1240860000
0.3684600000 0.2843520000 0.1278860000
0.4242620000 0.3023580000 0.1326310000
0.4783700000 0.3206680000 0.1374230000
0.5279930000 0.3373160000 0.1413290000
0.5753570000 0.3551840000 0.1480430000
0.6217750000 0.3752040000 0.1555050000
0.6646520000 0.3929350000 0.1598080000
0.7025560000 0.4087280000 0.1618070000
0.7385060000 0.4241090000 0.1636530000
0.7754020000 0.4374610000 0.1646450000
0.8147550000 0.4498210000 0.1653160000
0.8522320000 0.4614180000 0.1658660000
0.8895400000 0.4730910000 0.1664450000
0.9255050000 0.4848550000 0.1675290000
0.9487600000 0.4993060000 0.1720450000
0.9687800000 0.5150230000 0.1772640000
0.9901120000 0.5303120000 0.1831240000
1.0000000000 0.5451900000 0.1893030000
1.0000000000 0.5598990000 0.1948580000
1.0000000000 0.5738000000 0.2009770000
1.0000000000 0.5873200000 0.2069430000
0.0406500000 0.1387660000 0.1275650000
0.0442054000 0.1406120000 0.1245900000
0.0484016000 0.1433890000 0.1213240000
0.0529946000 0.1462270000 0.1171130000
0.0592966000 0.1501030000 0.1127490000
0.0677348000 0.1551230000 0.1081710000
0.0803082000 0.1623250000 0.1051960000
0.0965438000 0.1746400000 0.1067370000
0.1198140000 0.1909060000 0.1110700000
0.1537040000 0.2116430000 0.1153280000
0.2080260000 0.2367740000 0.1191420000
0.2785840000 0.2639810000 0.1199820000
0.3460750000 0.2930340000 0.1230640000
0.4104830000 0.3162890000 0.1285420000
0.4661480000 0.3339440000 0.1331350000
0.5200880000 0.3515220000 0.1388570000
0.5705200000 0.3734490000 0.1473560000
0.6180820000 0.3951320000 0.1546040000
0.6616310000 0.4141450000 0.1589990000
0.7027540000 0.4312500000 0.1634090000
0.7411310000 0.4476690000 0.1676360000
0.7808650000 0.4625010000 0.1710690000
0.8214690000 0.4764320000 0.1733580000
0.8605780000 0.4894790000 0.1747620000
0.8987560000 0.5026630000 0.1763330000
0.9337610000 0.5160450000 0.1782710000
0.9552150000 0.5324330000 0.1834740000
0.9759980000 0.5492330000 0.1898370000
0.9980620000 0.5654840000 0.1956660000
1.0000000000 0.5808190000 0.2009770000
1.0000000000 0.5962460000 0.2067900000
1.0000000000 0.6112000000 0.2122070000
1.0000000000 0.6256500000 0.2181120000
0.0342870000 0.1378350000 0.1271690000
0.0376287000 0.1392080000 0.1242690000
0.0412146000 0.1411150000 0.1206530000
0.0458228000 0.1437400000 0.1168230000
0.0509651000 0.1469290000 0.1118790000
0.0585489000 0.1511100000 0.1071790000
0.0687572000 0.1564810000 0.1027080000
0.0828870000 0.1651480000 0.1008320000
0.1007100000 0.1800260000 0.1032730000
0.1268940000 0.1994660000 0.1075760000
0.1681850000 0.2249940000 0.1120930000
0.2337990000 0.2558020000 0.1165030000
0.3115430000 0.2887160000 0.1165640000
0.3872590000 0.3235220000 0.1234910000
0.4517740000 0.3458000000 0.1295190000
0.5089040000 0.3649200000 0.1353930000
0.5613340000 0.3885560000 0.1436790000
0.6099490000 0.4120240000 0.1505460000
0.6563060000 0.4317390000 0.1567860000
0.7004040000 0.4505840000 0.1633630000
0.7414210000 0.4684980000 0.1701080000
0.7832760000 0.4849770000 0.1752190000
0.8255440000 0.5001140000 0.1794460000
0.8668190000 0.5149610000 0.1833220000
0.9063550000 0.5291220000 0.1859920000
0.9396810000 0.5443810000 0.1896540000
0.9614400000 0.5626310000 0.1962920000
0.9824220000 0.5807280000 0.2029910000
1.0000000000 0.5977110000 0.2088350000
1.0000000000 0.6147550000 0.2142370000
1.0000000000 0.6310060000 0.2198210000
1.0000000000 0.6461280000 0.2247040000
1.0000000000 0.6606550000 0.2292360000
0.0280461000 0.1377130000 0.1264210000
0.0313573000 0.1385820000 0.1238420000
0.0348516000 0.1401080000 0.1205160000
0.0386816000 0.1420460000 0.1163350000
0.0438239000 0.1447320000 0.1119100000
0.0499123000 0.1477070000 0.1064620000
0.0588540000 0.1522090000 0.1015790000
0.0708171000 0.1588010000 0.0974594000
0.0861219000 0.1699400000 0.0972000000
0.1065840000 0.1875640000 0.1007250000
0.1366140000 0.2116270000 0.1044790000
0.1884790000 0.2431370000 0.1099870000
0.2636450000 0.2784620000 0.1131300000
0.3473410000 0.3198290000 0.1176170000
0.4294500000 0.3521630000 0.1244980000
0.4939960000 0.3773560000 0.1301440000
0.5493550000 0.4027160000 0.1385980000
0.5997250000 0.4257570000 0.1458460000
0.6489360000 0.4470280000 0.1531700000
0.6953690000 0.4670330000 0.1612120000
0.7385210000 0.4867780000 0.1694970000
0.7824370000 0.5048450000 0.1769440000
0.8268710000 0.5216600000 0.1829400000
0.8696420000 0.5376210000 0.1884340000
0.9103840000 0.5534290000 0.1933620000
0.9440600000 0.5709160000 0.1997860000
0.9656370000 0.5904480000 0.2075230000
0.9877930000 0.6099030000 0.2154570000
1.0000000000 0.6280920000 0.2221710000
1.0000000000 0.6459600000 0.2284280000
1.0000000000 0.6623940000 0.2333870000
1.0000000000 0.6775310000 0.2375520000
1.0000000000 0.6922870000 0.2415200000
0.0222171000 0.1388270000 0.1253070000
0.0253452000 0.1389640000 0.1230180000
0.0286870000 0.1401080000 0.1199820000
0.0323949000 0.1415880000 0.1161520000
0.0368048000 0.1432970000 0.1115590000
0.0425422000 0.1460440000 0.1064770000
0.0498665000 0.1491260000 0.1008010000
0.0600290000 0.1541470000 0.0957046000
0.0738689000 0.1619290000 0.0925765000
0.0896315000 0.1766080000 0.0932631000
0.1122910000 0.1982150000 0.0966049000
0.1492330000 0.2275270000 0.1012590000
0.2150910000 0.2652780000 0.1073470000
0.3012740000 0.3067520000 0.1103230000
0.3924470000 0.3499660000 0.1192950000
0.4710920000 0.3850310000 0.1241780000
0.5358050000 0.4158540000 0.1334400000
0.5885400000 0.4388190000 0.1411460000
0.6392920000 0.4601360000 0.1485470000
0.6879840000 0.4817270000 0.1570760000
0.7335160000 0.5028760000 0.1667350000
0.7784390000 0.5224230000 0.1757230000
0.8251470000 0.5407190000 0.1837490000
0.8699170000 0.5583280000 0.1913630000
0.9126120000 0.5755700000 0.1982300000
0.9457540000 0.5945070000 0.2069580000
0.9686880000 0.6155640000 0.2172270000
0.9915770000 0.6363930000 0.2269780000
1.0000000000 0.6556800000 0.2348970000
1.0000000000 0.6735790000 0.2413670000
1.0000000000 0.6900440000 0.2460060000
1.0000000000 0.7063100000 0.2499430000
1.0000000000 0.7214770000 0.2537270000
0.0166171000 0.1413440000 0.1239800000
0.0196994000 0.1411920000 0.1217670000
0.0229038000 0.1411920000 0.1189750000
0.0263676000 0.1421680000 0.1154650000
0.0304265000 0.1435260000 0.1111160000
0.0355077000 0.1453270000 0.1060810000
0.0419013000 0.1478290000 0.1003280000
0.0507210000 0.1516440000 0.0947890000
0.0619516000 0.1575340000 0.0896315000
0.0769360000 0.1677270000 0.0871748000
0.0944076000 0.1866330000 0.0895705000
0.1214010000 0.2139160000 0.0932174000
0.1701380000 0.2508580000 0.0996109000
0.2471050000 0.2939350000 0.1036850000
0.3445330000 0.3419700000 0.1149000000
0.4359040000 0.3834130000 0.1173570000
0.5174790000 0.4244450000 0.1281760000
0.5759360000 0.4511640000 0.1360950000
0.6280000000 0.4730600000 0.1440450000
0.6785230000 0.4944690000 0.1520710000
0.7251550000 0.5169450000 0.1618980000
0.7721070000 0.5383080000 0.1722740000
0.8210570000 0.5575340000 0.1816740000
0.8670940000 0.5769280000 0.1910580000
0.9118640000 0.5952850000 0.2002750000
0.9465780000 0.6158850000 0.2113370000
0.9700010000 0.6385290000 0.2240940000
0.9939120000 0.6599680000 0.2358890000
1.0000000000 0.6796670000 0.2450600000
1.0000000000 0.6981610000 0.2522770000
1.0000000000 0.7154190000 0.2579690000
1.0000000000 0.7320060000 0.2627450000
1.0000000000 0.7477230000 0.2670940000
0.0109255000 0.1432820000 0.1225450000
0.0140078000 0.1431300000 0.1203630000
0.0170901000 0.1433280000 0.1175250000
0.0205081000 0.1437400000 0.1141370000
0.0243839000 0.1446710000 0.1100630000
0.0288701000 0.1460590000 0.1051040000
0.0345006000 0.1479820000 0.0994278000
0.0419623000 0.1505460000 0.0934920000
0.0516365000 0.1552000000 0.0875715000
0.0644999000 0.1633480000 0.0833448000
0.0794842000 0.1781950000 0.0824445000
0.0995041000 0.2023960000 0.0846265000
0.1346910000 0.2369270000 0.0896468000
0.1992830000 0.2816510000 0.0963455000
0.2961010000 0.3305410000 0.1064010000
0.3914550000 0.3762110000 0.1121390000
0.4856340000 0.4240330000 0.1211570000
0.5587850000 0.4597240000 0.1308000000
